assets/stacked-diagram.svg

<svg height="220" viewBox="0 0 403 220" width="403" xmlns="http://www.w3.org/2000/svg"><path d="m199.715265 247.177259 186.060362 98.350666c4.882673 2.580959 6.748581 8.631428 4.167623 13.514101-.938971 1.77635-2.391272 3.228651-4.167623 4.167622l-186.060362 98.350666c-5.847639 3.091036-12.845318 3.091036-18.692958 0l-186.06036168-98.350666c-4.88267301-2.580959-6.74858102-8.631428-4.16762211-13.514101.93897066-1.77635 2.39127196-3.228652 4.16762211-4.167622l186.06036168-98.350666c5.84764-3.091036 12.845319-3.091036 18.692958 0z" fill="#d4d3d7" transform="translate(11 -244)"/></svg>

<?xml version="1.0" encoding="UTF-8"?>
<svg width="403px" height="220px" viewBox="0 0 403 220" version="1.1" xmlns="http://www.w3.org/2000/svg" xmlns:xlink="http://www.w3.org/1999/xlink">
    <!-- Generator: Sketch 52.2 (67145) - http://www.bohemiancoding.com/sketch -->
    <title>Rectangle Copy 7</title>
    <desc>Created with Sketch.</desc>
    <g id="Designs" stroke="none" stroke-width="1" fill="none" fill-rule="evenodd">
        <g id="Partners" transform="translate(-891.000000, -512.000000)" fill="#D4D3D7" fill-rule="nonzero">
            <g id="Group-11" transform="translate(902.000000, 268.000000)">
                <path d="M199.715265,247.177259 L385.775627,345.527925 C390.6583,348.108884 392.524208,354.159353 389.94325,359.042026 C389.004279,360.818376 387.551978,362.270677 385.775627,363.209648 L199.715265,461.560314 C193.867626,464.65135 186.869947,464.65135 181.022307,461.560314 L-5.03805468,363.209648 C-9.92072769,360.628689 -11.7866357,354.57822 -9.20567679,349.695547 C-8.26670613,347.919197 -6.81440483,346.466895 -5.03805468,345.527925 L181.022307,247.177259 C186.869947,244.086223 193.867626,244.086223 199.715265,247.177259 Z" id="Rectangle-Copy-7"></path>
            </g>
        </g>
    </g>
</svg>
